assets/images/link.svg

<svg height="24" viewBox="0 0 24 24" width="24" xmlns="http://www.w3.org/2000/svg"><path d="m0 0h24v24h-24z" fill="none"/><path d="m3.9 12a3.1 3.1 0 0 1 3.1-3.1h4v-1.9h-4a5 5 0 0 0 0 10h4v-1.9h-4a3.1 3.1 0 0 1 -3.1-3.1zm4.1 1h8v-2h-8zm9-6h-4v1.9h4a3.1 3.1 0 1 1 0 6.2h-4v1.9h4a5 5 0 0 0 0-10z" fill="#fff"/></svg>

<svg xmlns="http://www.w3.org/2000/svg" width="24" height="24" viewBox="0 0 24 24"><defs><style>.a{fill:none;}.b{fill:#fff;}</style></defs><path class="a" d="M0,0H24V24H0Z"/><path class="b" d="M3.9,12A3.1,3.1,0,0,1,7,8.9h4V7H7A5,5,0,0,0,7,17h4V15.1H7A3.1,3.1,0,0,1,3.9,12ZM8,13h8V11H8Zm9-6H13V8.9h4a3.1,3.1,0,1,1,0,6.2H13V17h4A5,5,0,0,0,17,7Z"/></svg>
